X:1
T:James Gibb editions
T:Psalm 119, pt 3 (Becker) - Schütz
%%score [ ( 1 2 ) ( 3 4 ) ]
L:1/8
Q:1/4=98
M:2/2
K:G
V:1 treble nm="Soprano Alto"
V:2 treble 
V:3 bass nm="Tenor Bass"
V:4 bass 
V:1
"^Cornelius Becker\n(1561-1604)""^Psalm 119, part 3, SWV 219""^Heinrich Schütz\n(1585-1672)" D2 | %1
w: ~~Laß|
w: dein|
 G2 A2 B2 d2 | c4 B2 A2 | G2 A2 B2 (AG) | A6 :|[M:2/2] A2 | A2 A2 B2 A2 | G2 A2 F2 E2 | %8
w: mir Gnad wi- der-|fah- ren, wie|du mir zu- ge\- *|sagt,|Ich|will dein G'setz ver-|las- sen nicht, wills|
w: Hülf an mir nicht|spa- re, halt|mich in gu- ter *|acht.||||
 G2 A2 B2 c2 | B4 A4 | d4 c2 A2 | B4 A4 | G6 |] %13
w: treu- lich all- zeit|hal- ten|im- mer und|e- wig-|lich.|
w: |||||
V:2
 B,2 | E2 F2 G2 G2- | G2 F2 G2 F2 | E2 F2 G2 (FE) | F6 :|[M:2/2] F2 | E2 F2 G2 F2 | E2 E2 ^D2 E2 | %8
 E2 F2 G2 G2 | G4 F4 | G4 G2 F2 | (D2 G4) F2 | G6 |] %13
V:3
 G,2 | B,2 D2 D2 B,2 | (E2 DC) D2 D2 | B,2 D2 D2 D2 | D6 :| %5
[M:2/2]"^25. Was du dein'm Knecht verheißen in deinem wahren Wort,\ndas wirst du mir auch leisten, ich trau auf dich, mein Hort.\nIn mein'm Elend ist dies mein Trost, daß mich dein Wort erquicket\nund aus der Angst erlöst.\n\n27. Wenn die gottlosen Herzen von dein'm Wort weichen ab,\nbringt mir solchs große Schmerzen, kein Ruh darum ich hab.\nVon Gottes Gnad und reicher Güt sing ich in meinem Hause\nmanch schön und tröstlich Lied.\n\n29. Ich hab mich, Herr, erkläret, dies soll mein Erbe sein,\nwas du mich hast gelehret, ich halt die Wege dein,\nich fleh vor deinem Angesicht, aus meines Herzens Grunde,\ndein Gnad versag mir nicht." D2 | %6
 ^C2 D2 D2 D2 | B,2 C2 B,2 B,2 | B,2 D2 D2 E2 | D4 D4 | D4 E2 D2 | (B,2 D2) D4 | D6 |] %13
V:4
 G,2 | E,2 D,2 G,2 G,2 | A,4 G,2 D,2 | E,2 D,2 G,2 G,2 | D,6 :|[M:2/2] D,2 | A,2 D,2 G,2 D,2 | %7
 E,2 A,,2 B,,2 E,2 | E,2 D,2 G,2 C,2 | G,4 D,4 | B,,4 C,2 D,2 | G,4 D,4 | G,6 |] %13

